packages/bezier-icons/icons/out.svg

<svg width="24" height="24" viewBox="0 0 24 24" fill="none" xmlns="http://www.w3.org/2000/svg">
<path d="M18.7929 13L16.379 15.4139C15.9885 15.8044 15.9885 16.4376 16.379 16.8281C16.7695 17.2186 17.4027 17.2186 17.7932 16.8281L21.5611 13.0602C22.1467 12.4747 22.1467 11.5245 21.5611 10.939L17.7932 7.1711C17.4027 6.78057 16.7695 6.78057 16.379 7.1711C15.9885 7.56162 15.9885 8.19479 16.379 8.58531L18.7937 11H9.00012C8.44784 11 8.00012 11.4477 8.00012 12C8.00012 12.5523 8.44784 13 9.00012 13H18.7929Z" fill="#313234"/>
<path d="M2.00003 6C2.00003 3.79086 3.79089 2 6.00003 2H11C11.5523 2 12 2.44772 12 3C12 3.55228 11.5523 4 11 4H6.00003C4.89546 4 4.00003 4.89543 4.00003 6V18C4.00003 19.1046 4.89546 20 6.00003 20H11C11.5523 20 12 20.4477 12 21C12 21.5523 11.5523 22 11 22H6.00003C3.79089 22 2.00003 20.2091 2.00003 18V6Z" fill="#313234"/>
</svg>

<svg xmlns="http://www.w3.org/2000/svg" width="24" height="24" fill="none" viewBox="0 0 24 24"><path fill="#313234" d="m18.793 13-2.414 2.414a1 1 0 0 0 1.414 1.414l3.768-3.768a1.5 1.5 0 0 0 0-2.121l-3.768-3.768a1 1 0 1 0-1.414 1.414L18.794 11H9a1 1 0 1 0 0 2z"/><path fill="#313234" d="M2 6a4 4 0 0 1 4-4h5a1 1 0 1 1 0 2H6a2 2 0 0 0-2 2v12a2 2 0 0 0 2 2h5a1 1 0 1 1 0 2H6a4 4 0 0 1-4-4z"/></svg>
